src/Eleven/16/symbolic/categories/applications-other-symbolic.svg

<?xml version="1.0" encoding="UTF-8" standalone="no"?>
<svg
   width="16"
   height="16"
   version="1.1"
   id="svg2"
   sodipodi:docname="applications-other-symbolic.svg"
   inkscape:version="1.4.2 (ebf0e940d0, 2025-05-08)"
   xmlns:inkscape="http://www.inkscape.org/namespaces/inkscape"
   xmlns:sodipodi="http://sodipodi.sourceforge.net/DTD/sodipodi-0.dtd"
   xmlns="http://www.w3.org/2000/svg"
   xmlns:svg="http://www.w3.org/2000/svg">
  <defs
     id="defs2">
     <style
        id="current-color-scheme"
        type="text/css">
        .ColorScheme-Text { color:#363636; }
        .ColorScheme-NeutralText { color:#f67400; }
        .ColorScheme-PositiveText { color:#37c837; }
        .ColorScheme-NegativeText { color:#f44336; }
        .ColorScheme-Highlight { color:#3daee9; }
     </style>
  </defs>
  <sodipodi:namedview
     id="namedview2"
     pagecolor="#ffffff"
     bordercolor="#000000"
     borderopacity="0.25"
     inkscape:showpageshadow="2"
     inkscape:pageopacity="0.0"
     inkscape:pagecheckerboard="0"
     inkscape:deskcolor="#d1d1d1"
     inkscape:zoom="49.6875"
     inkscape:cx="8"
     inkscape:cy="8"
     inkscape:window-width="1920"
     inkscape:window-height="1010"
     inkscape:window-x="0"
     inkscape:window-y="0"
     inkscape:window-maximized="1"
     inkscape:current-layer="svg2" />
  <path
     id="path1"
     style="fill:currentColor"
     class="ColorScheme-Text"
     d="M 2 2 C 1.446 2 1 2.446 1 3 L 1 14 C 1 14.554 1.446 15 2 15 L 13 15 C 13.554 15 14 14.554 14 14 L 14 8 L 8 8 L 8 2 L 2 2 z M 2 3 L 7 3 L 7 8 L 2 8 L 2 3 z M 2 9 L 7 9 L 7 14 L 2 14 L 2 9 z M 8 9 L 13 9 L 13 14 L 8 14 L 8 9 z " />
  <path
     id="path2"
     style="fill:currentColor"
     class="ColorScheme-Text"
     d="M 11.111328 1 C 10.892126 1 10.673759 1.0840681 10.505859 1.2519531 L 7.4746094 4.28125 C 7.1388394 4.61702 7.1388394 5.1583406 7.4746094 5.4941406 L 10.505859 8.5253906 C 10.841639 8.8611606 11.38295 8.8611606 11.71875 8.5253906 L 14.748047 5.4941406 C 15.083827 5.1583706 15.083817 4.61705 14.748047 4.28125 L 11.71875 1.2519531 C 11.55086 1.0840681 11.330531 1 11.111328 1 z M 11.111328 2.0605469 L 13.939453 4.8886719 L 11.111328 7.7167969 L 8.2832031 4.8886719 L 11.111328 2.0605469 z " />
</svg>

<svg width="16" height="16" version="1.1" xmlns="http://www.w3.org/2000/svg">
 <path d="m2 2c-0.554 0-1 0.446-1 1v11c0 0.554 0.446 1 1 1h11c0.554 0 1-0.446 1-1v-6h-6v-6zm0 1h5v5h-5zm0 6h5v5h-5zm6 0h5v5h-5z" fill="#363636" stroke-linecap="round" stroke-linejoin="round" stroke-width="1.5" style="paint-order:stroke fill markers"/>
 <path d="m11.718 1.2518c-0.33578-0.33577-0.8768-0.33577-1.2126 0l-3.0301 3.0301c-0.33577 0.33577-0.33577 0.8768 0 1.2126l3.0301 3.0301c0.33578 0.33577 0.8768 0.33577 1.2126 0l3.0301-3.0301c0.33578-0.33577 0.33577-0.8768 0-1.2126zm-0.60629 0.80792 2.8284 2.8284-2.8284 2.8284-2.8284-2.8284z" fill="#363636" stroke-linecap="round" stroke-linejoin="round" stroke-width="1.2857" style="paint-order:stroke fill markers"/>
</svg>
